public/fonts/icons/files-public-domain.svg

<?xml version="1.0" encoding="UTF-8" standalone="no"?>
<svg width="60px" height="60px" viewBox="0 0 60 60" version="1.1" xmlns="http://www.w3.org/2000/svg" xmlns:xlink="http://www.w3.org/1999/xlink" xmlns:sketch="http://www.bohemiancoding.com/sketch/ns">
    <!-- Generator: Sketch 3.1.1 (8761) - http://www.bohemiancoding.com/sketch -->
    <title>Artboard</title>
    <desc>Created with Sketch.</desc>
    <defs></defs>
    <g id="Page-1" stroke="none" stroke-width="1" fill="none" fill-rule="evenodd" sketch:type="MSPage">
        <g id="Artboard" sketch:type="MSArtboardGroup">
            <g id="public-domain" sketch:type="MSLayerGroup">
                <g id="Icons" sketch:type="MSShapeGroup">
                    <g id="Artboard-2">
                        <g id="icon-public-domain">
                            <g id="bg-2">
                                <circle id="Oval-5" fill="#000000" cx="30" cy="30" r="30"></circle>
                                <circle id="Oval-6" fill="#FFFFFF" cx="30" cy="30" r="24"></circle>
                            </g>
                            <path d="M15.9103125,37.5563077 L15.9103125,21.2049231 L24.1603125,21.2049231 C28.2309375,21.2049231 30.2671875,23.0501538 30.2671875,26.7433846 C30.2671875,27.3766154 30.16875,27.9821538 29.9728125,28.5636923 C29.776875,29.1443077 29.4365625,29.7230769 28.9546875,30.3046154 C28.4728125,30.8852308 27.75,31.3596923 26.7853125,31.7289231 C25.8215625,32.0972308 24.67875,32.2827692 23.3578125,32.2827692 L20.0896875,32.2827692 L20.0896875,37.5572308 L15.9103125,37.5572308 L15.9103125,37.5563077 L15.9103125,37.5563077 Z M20.0353125,24.2630769 L20.0353125,29.2218462 L23.570625,29.2218462 C24.4275,29.2218462 25.070625,28.9836923 25.5,28.5092308 C25.929375,28.0356923 26.1440625,27.4458462 26.1440625,26.7415385 C26.1440625,25.0892308 25.250625,24.2621538 23.4646875,24.2621538 L20.03625,24.2621538 L20.03625,24.2630769 L20.0353125,24.2630769 L20.0353125,24.2630769 Z M31.39125,37.5563077 L31.39125,21.2049231 L37.8215625,21.2049231 C40.4634375,21.2049231 42.534375,21.8732308 44.03625,23.2089231 C45.534375,24.5455385 46.284375,26.6030769 46.284375,29.3806154 C46.284375,32.1590769 45.5334375,34.2175385 44.03625,35.5523077 C42.534375,36.888 40.4634375,37.5563077 37.8215625,37.5563077 L31.39125,37.5563077 L31.39125,37.5563077 Z M35.5190625,24.6332308 L35.5190625,34.1289231 L37.9284375,34.1289231 C39.3928125,34.1289231 40.455,33.6987692 41.1159375,32.8356923 C41.776875,31.9744615 42.106875,30.8243077 42.106875,29.3815385 C42.106875,27.9396923 41.776875,26.7886154 41.1159375,25.9264615 C40.455,25.0652308 39.375,24.6350769 37.875,24.6350769 L35.5190625,24.6332308 L35.5190625,24.6332308 Z" id="Shape-2" fill="#000000"></path>
                        </g>
                    </g>
                </g>
            </g>
        </g>
    </g>
</svg>

<svg width="60" height="60" viewBox="0 0 60 60" xmlns="http://www.w3.org/2000/svg"><title>Files Public Domain</title><g fill="none" fill-rule="evenodd"><circle fill="#000" cx="30" cy="30" r="30"/><circle fill="#FFF" cx="30" cy="30" r="24"/><path d="M15.91 37.556v-16.35h8.25c4.07 0 6.107 1.844 6.107 5.537 0 .634-.098 1.24-.294 1.82-.196.58-.536 1.16-1.018 1.742-.482.58-1.205 1.055-2.17 1.424-.963.367-2.106.553-3.427.553H20.09v5.274h-4.18zm4.125-13.293v4.96h3.536c.857 0 1.5-.24 1.93-.714.43-.474.644-1.064.644-1.768 0-1.653-.893-2.48-2.68-2.48h-3.428zM31.39 37.556v-16.35h6.432c2.64 0 4.712.667 6.214 2.003 1.498 1.336 2.248 3.393 2.248 6.17 0 2.78-.75 4.838-2.248 6.172-1.502 1.336-3.573 2.004-6.214 2.004h-6.43zm4.13-12.923v9.496h2.408c1.465 0 2.527-.43 3.188-1.294.66-.862.99-2.012.99-3.454 0-1.442-.33-2.593-.99-3.456-.66-.86-1.74-1.29-3.24-1.29l-2.357-.003z" fill="#000"/></g></svg>
